assets/Repeat single button/Flat/repeat_single_button_flat.svg

<svg width="32" height="32" viewBox="0 0 32 32" fill="none" xmlns="http://www.w3.org/2000/svg">
<path d="M2 6C2 3.79086 3.79086 2 6 2H26C28.2091 2 30 3.79086 30 6V26C30 28.2091 28.2091 30 26 30H6C3.79086 30 2 28.2091 2 26V6Z" fill="#00A6ED"/>
<path d="M25.8648 10.2181L22.4657 7.10997C22.2266 6.87088 21.8108 7.0476 21.8004 7.39063V8.65882C21.8004 8.85633 21.6445 9.02265 21.4366 9.02265H11.5717C8.50519 9.03304 6 11.5071 6 14.5632V18.6598C6 18.8987 6.31898 19.0138 6.49171 18.8487C7.11065 18.2571 7.88906 17.8309 8.75594 17.6412C8.87479 17.6152 8.96257 17.5119 8.96257 17.3902V14.5736C8.96257 13.1287 10.1372 11.954 11.5821 11.954L21.447 11.9852C21.6445 11.9852 21.8108 12.1515 21.8108 12.349V13.6172C21.8108 13.9603 22.2162 14.1474 22.4657 13.9083L25.8648 10.7898C26.0416 10.6339 26.0416 10.374 25.8648 10.2181Z" fill="white"/>
<path d="M14.3787 20.016C14.1886 20.0154 14.0658 20.2198 14.1416 20.3942C14.3935 20.9742 14.5332 21.6144 14.5332 22.2871C14.5332 22.4194 14.5278 22.5505 14.5172 22.6801C14.5048 22.8317 14.6212 22.9665 14.7733 22.9665H20.4283C23.4948 22.9561 26 20.4821 26 17.426V14.3125C26 13.9902 25.6362 13.8343 25.3971 14.0422L23.1518 16.1004C23.079 16.1628 23.0374 16.2564 23.0374 16.3499V17.4156C23.0374 18.8605 21.8628 20.0351 20.4179 20.0351L14.3787 20.016Z" fill="white"/>
<path d="M13 22.2515C13 24.0472 11.5443 25.5029 9.74854 25.5029C7.9528 25.5029 6.49707 24.0472 6.49707 22.2515C6.49707 20.4557 7.9528 19 9.74854 19C11.5443 19 13 20.4557 13 22.2515ZM8.70367 20.4965C8.70367 20.7726 8.92753 20.9965 9.20367 20.9965H9.33096V23.7226C9.33096 23.9988 9.55482 24.2226 9.83096 24.2226C10.1071 24.2226 10.331 23.9988 10.331 23.7226V20.4965C10.331 20.2203 10.1071 19.9965 9.83096 19.9965H9.20367C8.92753 19.9965 8.70367 20.2203 8.70367 20.4965Z" fill="white"/>
</svg>

<svg xmlns="http://www.w3.org/2000/svg" width="32" height="32" fill="none"><path fill="#00A6ED" d="M2 6a4 4 0 0 1 4-4h20a4 4 0 0 1 4 4v20a4 4 0 0 1-4 4H6a4 4 0 0 1-4-4V6Z"/><path fill="#fff" d="m25.865 10.218-3.4-3.108c-.238-.24-.654-.062-.665.28V8.66a.362.362 0 0 1-.363.364h-9.865C8.505 9.033 6 11.507 6 14.563v4.097c0 .239.319.354.492.189a4.745 4.745 0 0 1 2.264-1.208.26.26 0 0 0 .207-.25v-2.817a2.622 2.622 0 0 1 2.62-2.62l9.864.031c.198 0 .364.167.364.364v1.268c0 .343.405.53.655.291l3.399-3.118a.374.374 0 0 0 0-.572ZM14.379 20.016c-.19 0-.313.204-.237.378a4.74 4.74 0 0 1 .375 2.286.262.262 0 0 0 .256.287h5.655c3.067-.01 5.572-2.485 5.572-5.541v-3.113a.36.36 0 0 0-.603-.27L23.152 16.1a.332.332 0 0 0-.115.25v1.066a2.622 2.622 0 0 1-2.62 2.62l-6.038-.02ZM13 22.252a3.251 3.251 0 1 1-6.503 0 3.251 3.251 0 0 1 6.503 0Zm-4.296-1.755a.5.5 0 0 0 .5.5h.127v2.726a.5.5 0 1 0 1 0v-3.226a.5.5 0 0 0-.5-.5h-.627a.5.5 0 0 0-.5.5Z"/></svg>
